images_sukapura_svg/cmd/lc_numberformatincdecimals.svg

<svg viewBox="0 0 24 24" xmlns="http://www.w3.org/2000/svg" xmlns:xlink="http://www.w3.org/1999/xlink"><linearGradient id="a" gradientUnits="userSpaceOnUse" x1="6.507122" x2="6.460937" y1="9.494949" y2="1.65625"><stop offset="0" stop-color="#0040dd"/><stop offset="1" stop-color="#0a84ff"/></linearGradient><path d="m5 22h2v2h-2z" fill="#696969"/><text style="font-size:15.732811;font-family:Roboto;letter-spacing:0;word-spacing:0;fill:#69696e;stroke-width:.39332" x="7.207068" y="23.846359"><tspan stroke-width=".39332" x="7.207068" y="23.846359">00</tspan></text><text style="font-size:14.415765;font-family:Roboto;letter-spacing:0;word-spacing:0;fill:#69696e;stroke-width:.360394" x="16.069971" y="11.833317"><tspan font-size="15.706674" stroke-width=".360394" x="16.069971" y="11.833317">0</tspan></text><path d="m14 10h2v2h-2z" fill="#696969"/><path d="m6.4921875 1.0019531c-.1250061.0043-.2437006.055972-.3320313.1445313l-4 4c-.1913133.1922914-.1913133.5030211 0 .6953125l4 4.0000001c.3103202.307465.8376307.089183.8398438-.347656v-2.501953h.015625l3.984375-.007812c.541284-.00022.992188-.450664.992188-.9921885v-1c0-.5415243-.450425-.992406-.992188-.9921875l-3.984375.00781h-.00781l-.007815-2.5156225c-.0013823-.2771002-.2308355-.4986107-.5078125-.4902344z" fill="url(#a)"/></svg>

<?xml version="1.0" encoding="UTF-8" standalone="no"?>
<svg
   xmlns:dc="http://purl.org/dc/elements/1.1/"
   xmlns:cc="http://creativecommons.org/ns#"
   xmlns:rdf="http://www.w3.org/1999/02/22-rdf-syntax-ns#"
   xmlns:svg="http://www.w3.org/2000/svg"
   xmlns="http://www.w3.org/2000/svg"
   xmlns:xlink="http://www.w3.org/1999/xlink"
   xmlns:sodipodi="http://sodipodi.sourceforge.net/DTD/sodipodi-0.dtd"
   xmlns:inkscape="http://www.inkscape.org/namespaces/inkscape"
   viewBox="0 0 24 24"
   version="1.1"
   id="svg12"
   sodipodi:docname="lc_numberformatincdecimals.svg"
   inkscape:version="0.92.3 (unknown)">
  <metadata
     id="metadata18">
    <rdf:RDF>
      <cc:Work
         rdf:about="">
        <dc:format>image/svg+xml</dc:format>
        <dc:type
           rdf:resource="http://purl.org/dc/dcmitype/StillImage" />
        <dc:title />
      </cc:Work>
    </rdf:RDF>
  </metadata>
  <defs
     id="defs16">
    <linearGradient
       inkscape:collect="always"
       xlink:href="#a"
       id="linearGradient1417"
       x1="4.4999795"
       y1="8.4999294"
       x2="4.4537954"
       y2="0.66123003"
       gradientUnits="userSpaceOnUse"
       gradientTransform="translate(2.0071419,0.99502)" />
    <linearGradient
       gradientTransform="translate(-41.898305)"
       id="a"
       gradientUnits="userSpaceOnUse"
       x1="14"
       x2="13.79661"
       y1="22"
       y2="2.1355929">
      <stop
         offset="0"
         stop-color="#0040dd"
         id="stop829" />
      <stop
         offset="1"
         stop-color="#0a84ff"
         id="stop831" />
    </linearGradient>
  </defs>
  <sodipodi:namedview
     pagecolor="#ffffff"
     bordercolor="#666666"
     borderopacity="1"
     objecttolerance="10"
     gridtolerance="10"
     guidetolerance="10"
     inkscape:pageopacity="0"
     inkscape:pageshadow="2"
     inkscape:window-width="1350"
     inkscape:window-height="691"
     id="namedview14"
     showgrid="true"
     inkscape:snap-global="true"
     inkscape:zoom="8"
     inkscape:cx="11.014751"
     inkscape:cy="10.293065"
     inkscape:window-x="0"
     inkscape:window-y="0"
     inkscape:window-maximized="0"
     inkscape:current-layer="svg12">
    <inkscape:grid
       type="xygrid"
       id="grid828"
       spacingx="0.5"
       spacingy="0.5"
       empspacing="2" />
  </sodipodi:namedview>
  <path
     style="fill:#696969"
     inkscape:connector-curvature="0"
     id="path2"
     d="m 5,22 h 2 v 2 H 5 Z" />
  <text
     xml:space="preserve"
     style="font-style:normal;font-variant:normal;font-weight:normal;font-stretch:normal;font-size:15.73281097px;line-height:1.25;font-family:Roboto;-inkscape-font-specification:Roboto;letter-spacing:0px;word-spacing:0px;fill:#69696e;fill-opacity:1;stroke:none;stroke-width:0.39332023"
     x="7.2070684"
     y="23.846359"
     id="text851"><tspan
       sodipodi:role="line"
       id="tspan849"
       x="7.2070684"
       y="23.846359"
       style="stroke-width:0.39332023">00</tspan></text>
  <text
     id="text858"
     y="11.833317"
     x="16.069971"
     style="font-style:normal;font-variant:normal;font-weight:normal;font-stretch:normal;font-size:14.41576481px;line-height:1.25;font-family:Roboto;-inkscape-font-specification:Roboto;letter-spacing:0px;word-spacing:0px;fill:#69696e;fill-opacity:1;stroke:none;stroke-width:0.36039409"
     xml:space="preserve"><tspan
       style="font-size:15.70667362px;stroke-width:0.36039409"
       y="11.833317"
       x="16.069971"
       id="tspan856"
       sodipodi:role="line">0</tspan></text>
  <path
     d="m 14,10 h 2 v 2 h -2 z"
     id="path860"
     inkscape:connector-curvature="0"
     style="fill:#696969" />
  <path
     style="fill:url(#linearGradient1417);fill-opacity:1;stroke:none;stroke-linecap:round;stroke-linejoin:round"
     d="m 6.4921875,1.0019531 c -0.1250061,0.0043 -0.2437006,0.055972 -0.3320313,0.1445313 l -4,4 c -0.1913133,0.1922914 -0.1913133,0.5030211 0,0.6953125 l 4,4.0000001 C 6.4704764,10.149262 6.9977869,9.93098 7,9.494141 V 6.992188 H 7.015625 L 11,6.984376 c 0.541284,-2.2e-4 0.992188,-0.450664 0.992188,-0.9921885 v -1 C 11.992188,4.4506632 11.541763,3.9997815 11,4 L 7.015625,4.00781 H 7.007815 L 7,1.4921875 C 6.9986177,1.2150873 6.7691645,0.9935768 6.4921875,1.0019531 Z"
     id="path2-3"
     inkscape:connector-curvature="0"
     sodipodi:nodetypes="cccccccccssccccc" />
</svg>
